X: 154
T: Nie całuj mnie
C: Bolesław Jan Ćwiklicz
%%abc-version 2.0
%%abcx-abcm2ps-target-version 5.9.1 (29 Sep 2008)
%%abc-creator hum2abc beta
%%abcx-conversion-date 2021/10/04 07:38:41
%%abc-edited-by Anastazja Marusiak
%%abc-edited-by Kamil Watkowski
%%abcx-initial-encoding-date 2021-08-13
%%humdrum-veritas 2304668765
%%humdrum-veritas-data 255119750
%%linebreak <none>
%%barnumbers 0
L: 1/16
M: 3/4
N: Derived from pl-kozmzk--mzk-m-70_cwiklicz-boleslaw-jan-nie-caluj-mnie.krn
Q: "Niezbyt prędko." 1/4=92
V: 1 clef=treble
V: 2 clef=treble
V: 3 clef=bass
K: G
[V:1] z12 | 
[V:2] B4d6c2 & D8E4 | 
[V:3] G,8[G,4C,4] & G,,2A,,2B,,4x4 | 
[V:1] z12 | 
[V:2] [E8C8]D4 | 
[V:3] G,8F,4 & B,,4A,,4D,2C,2 | 
[V:1] z12 | 
[V:2] [G4D4]>[A4F4D4][B2G2D2][c2G2C2] | 
[V:3] [G,2B,,2]C,2B,,2A,,2G,,2E,,2 | 
[V:1] z12 | 
[V:2] [e8c8G8][d4A4F4] | 
[V:3] D,,G,,A,,C,!beambr1!D,G,A,CD4 | 
[V:1] B4d6c2 | 
[V:2] z4[B4G4D4][c4G4D4] | 
[V:3] [G,12G,,12] | 
[V:1] E8z2 D2 | 
[V:2] z4[A4E4A,4][A4F4D4] | 
[V:3] C,8D,4 | 
[V:1] G4>A4 B2c2 | 
[V:2] [G4D4][A4D4][B4D4] | 
[V:3] [G,4B,,4][F,4A,,4][G,4G,,4] | 
[V:1] e8d4 | 
[V:2] [c8E8][d4G4] | 
[V:3] G,4A,2^A,2!arpeggio![B,4G,,4] & C,8x4 | 
[V:1] A4c6B2 | 
[V:2] A/E/A/E/A/E/A/E/A/E/A/E/A/E/A/E/A/E/A/E/A/E/A/E/ | 
[V:3] C,/A,/C,/A,/C,/A,/C,/A,/C,/A,/C,/A,/C,/A,/C,/A,/C,/A,/C,/A,/C,/A,/C,/A,/ | 
[V:1] D8G4 | 
[V:2] G/D/G/D/G/D/G/D/ F/D/F/D/F/D/F/D/ [d/G/]D/[d/G/]D/[d/G/]D/[d/G/]D/ | 
[V:3] D,/B,/D,/B,/D,/B,/D,/B,/ C,/A,/C,/A,/C,/A,/C,/A,/ B,,/G,/B,,/G,/B,,/G,/B,,/G,/ | 
[V:1] F4>E4 B2A2 | 
[V:2] ^c/G/c/G/c/G/c/G/c/G/c/G/c/G/c/G/!accent![e4c4G4] | 
[V:3] A,,/A,/A,,/A,/A,,/A,/A,,/A,/A,,/A,/A,,/A,/A,,/A,/A,,/A,/ A,,,/A,,/A,,,/A,,/A,,,/A,,/A,,,/A,,/ | 
[V:1] d8z4 | 
[V:2] [d4A4F4]z2 FA .d2.e2 | 
[V:3] D,,A,,D,F, A,D z2z4 | 
[V:1] z12 | 
[V:2] .f2[g2d2][f2^c2][e2B2] [b2g2c2]a2 | 
[V:3] z2 B2A2G2[E4A,4] | 
[V:1] z12 | 
[V:2] [d'2f2d2] z2 z2 fa .d'2.e'2 | 
[V:3] D,A,DF Ad z2z4[K:clef=treble] | 
[V:1] z12 | 
[V:2] f'2 [g'2d'2][f'2^c'2][e'2b2] [b'2g'2c'2]a'2 | 
[V:3] z2 .b2.a2.g2[e4A4] | 
[V:1] z4z4f4 | 
[V:2] [d''2f'2d'2] z2z4z4 | 
[V:3] d2 z2z4z4 | 
[V:1] g8f4 | 
[V:2] d/^c/d/c/d/c/d/c/d/c/d/c/d/c/d/c/d/c/d/c/d/c/d/^c/ | 
[V:3] B/^A/B/A/B/A/B/A/B/A/B/A/B/A/B/A/B/A/B/A/B/A/B/^A/ | 
[V:1] ^c4-c6d2 | 
[V:2] B/^A/B/A/B/A/B/A/B/A/B/A/B/A/B/A/B/A/B/A/B/A/B/^A/ | 
[V:3] G/F/G/F/G/F/G/F/G/F/G/F/G/F/G/F/G/F/G/F/G/F/G/F/ | 
[V:1] e4>f4a2g2 | 
[V:2] GFED ^CDCD EFED | 
[V:3] ED^CB, ^A,B,A,B, CDCB,[K:clef=bass] | 
[V:1] f4e8 | 
[V:2] ^CDCD CDC=C B,2 z2 | 
[V:3] ^A,B,A,B, A,B,A,=A, ^G,A,G,=G, | 
[V:1] d4^c4B4 | 
[V:2] z2 (3DFB z2 (3EF^A z2 (3DGB | 
[V:3] (3B,,F,B, z2 (3F,,F,^A, z2 (3G,,D,B, z2 | 
[V:1] A4B4F4 | 
[V:2] z2 (3DAd z2 (3DGB z2 (3^DFB | 
[V:3] (3F,,D,A, z2 (3G,,G,B, z2 (3B,,F,B, z2 | 
[V:1] G8g4 | 
[V:2] z2 z/ G/B/e/ g/b/e'/g'/ b'2z4 | 
[V:3] [B,,/E,,/]E,/G,/B,/ E< z z2 z2z4 | 
[V:1] f4>^c4d4 | 
[V:2] z4[^c4G4][d4F4] | 
[V:3] z4[A,4A,,4][A,4D,4] | 
[V:1] z12 | 
[V:2] [G8_B,8][F4A,4]- | 
[V:3] z12 | 
[V:1] z12 | 
[V:2] [F2A,2][^C2G,2][D8F,8] | 
[V:3] A,,4[A,,8D,,8] | 
[V:1] B4d6c2 | 
[V:2] z2 D2[B2G2]D2E2[c2G2] & x8!tenuto!E4 | 
[V:3] [G,12G,,12] | 
[V:1] E8z2 D2 | 
[V:2] z2 A,2[A2E2]A,2 z2 [A2F2D2] | 
[V:3] C,8D,4 | 
[V:1] G4>A4B2c2 | 
[V:2] z2 [G2D2] z2 [A2D2][B4D4] | 
[V:3] [G,4B,,4][F,4A,,4][G,4G,,4] | 
[V:1] e8d4 | 
[V:2] [c/G/]E/[c/G/]E/[c/G/]E/[c/G/]E/[c/G/]E/[c/G/]E/[c/G/]E/[c/G/]E/ [d/G/]D/[d/G/]D/[d/G/]D/[d/G/]D/ | 
[V:3] G,4A,2^A,2!arpeggio![B,4G,,4] & C,8x4 | 
[V:1] A4c6B2 | 
[V:2] A/E/A/E/A/E/A/E/A/E/A/E/A/E/A/E/A/E/A/E/A/E/A/E/ | 
[V:3] C,/A,/C,/A,/C,/A,/C,/A,/C,/A,/C,/A,/C,/A,/C,/A,/C,/A,/C,/A,/C,/A,/C,/A,/ | 
[V:1] D8G4 | 
[V:2] G/D/G/D/G/D/G/D/ F/D/F/D/F/D/F/D/ [d/G/]D/[d/G/]D/[d/G/]D/[d/G/]D/ | 
[V:3] D,/B,/D,/B,/D,/B,/D,/B,/ C,/A,/C,/A,/C,/A,/C,/A,/ B,,/G,/B,,/G,/B,,/G,/B,,/G,/ | 
[V:1] F4>E4 B2A2 | 
[V:2] ^c/G/c/G/c/G/c/G/c/G/c/G/c/G/c/G/!accent![e4c4G4] | 
[V:3] A,,/A,/A,,/A,/A,,/A,/A,,/A,/A,,/A,/A,,/A,/A,,/A,/A,,/A,/ A,,,/A,,/A,,,/A,,/A,,,/A,,/A,,,/A,,/ | 
[V:1] d8z4 | 
[V:2] [d4A4F4]z2 FA .d2.e2 | 
[V:3] D,,A,,D,F, A,D z2z4 | 
[V:1] z12 | 
[V:2] .f2[g2d2][f2^c2][e2B2] [b2g2c2]a2 | 
[V:3] z2 B2A2G2[E4A,4] | 
[V:1] z12 | 
[V:2] [d'2f2d2] x2 x2 fa .d'2.e'2 | 
[V:3] D,A,DF Ad z2z4[K:clef=treble] | 
[V:1] z12 | 
[V:2] .f'2[a'2d'2][f'2^c'2][e'2b2] [b'2g'2c'2]a'2 | 
[V:3] z2 .b2.a2.g2[e4A4] | 
[V:1] z4z4f4 | 
[V:2] [d''2f'2d'2] z2z4z4 | 
[V:3] d2 z2z4z4 | 
[V:1] g8f4 | 
[V:2] d/^c/d/c/d/c/d/c/d/c/d/c/d/c/d/c/d/c/d/c/d/c/d/^c/ | 
[V:3] B/^A/B/A/B/A/B/A/B/A/B/A/B/A/B/A/B/A/B/A/B/A/B/^A/ | 
[V:1] e2d4<^c4d2 | 
[V:2] B/^A/B/A/B/A/B/A/B/A/B/A/B/A/B/A/B/A/B/A/B/A/B/^A/ | 
[V:3] G/F/G/F/G/F/G/F/G/F/G/F/G/F/G/F/G/F/G/F/G/F/G/F/ | 
[V:1] e4>f4a2g2 | 
[V:2] GFED ^CDCD EFED | 
[V:3] ED^CB, ^A,B,A,B, CDCB,[K:clef=bass] | 
[V:1] f4e8 | 
[V:2] ^CDCD CDC=C B,2 z2 | 
[V:3] ^A,B,A,B, A,B,A,=A, ^G,A,G,=G, | 
[V:1] d4^c4B4 | 
[V:2] z2 (3DFB z2 (3EF^A z2 (3DGB | 
[V:3] (3B,,F,B, z2 (3F,,F,^A, z2 (3G,,D,B, z2 | 
[V:1] A4B4F4 | 
[V:2] z2 (3DAd z2 (3DGd z2 (3DAd | 
[V:3] (3F,,D,A, z2 (3G,,D,B, z2 (3[=C,=C,,]F,A, z2 | 
[V:1] G8z4 | 
[V:2] x4g/b/d'/g'/b'2z4 | 
[V:3] [B,,/B,,,/]D,/G,/B,/!beambr1!D/G/B/d/x4z4 | 
[V:1] c8B4- | 
[V:2] [c8_E8]z4 | 
[V:3] [G,8C,8]z4 | 
[V:1] B2F2G8 |]  
[V:2] [F4C4][G8B,8] |]  
[V:3] .D,4-[D,8G,,8] |]  


